lib/healthicons/icons/solid/people/people.svg

<svg fill="none" height="48" viewBox="0 0 48 48" width="48" xmlns="http://www.w3.org/2000/svg"><g fill="#333"><path d="m17 24c3.8675 0 7-3.1325 7-7s-3.1325-7-7-7-7 3.1325-7 7 3.1325 7 7 7z"/><path d="m39 20.5c0 3.0387-2.4613 5.5-5.5 5.5s-5.5-2.4613-5.5-5.5c0-3.0388 2.4613-5.5 5.5-5.5s5.5 2.4612 5.5 5.5z"/><path d="m17 26c2.7336 0 7.183.8511 10.1011 2.5452 1.1919 1.2133 1.8989 2.5362 1.8989 3.8548v5.6h-25v-5.6c0-4.256 8.6612-6.4 13-6.4z"/><path d="m44 38h-13v-5.6c0-1.4163-.5114-2.7199-1.3236-3.8834 1.5409-.3441 3.0579-.5166 4.2163-.5166 3.7284 0 10.1073 1.7867 10.1073 5.3333z"/></g></svg>

<svg width="48" height="48" viewBox="0 0 48 48" fill="none" xmlns="http://www.w3.org/2000/svg">
<path d="M17 24C20.8675 24 24 20.8675 24 17C24 13.1325 20.8675 10 17 10C13.1325 10 10 13.1325 10 17C10 20.8675 13.1325 24 17 24Z" fill="#333333"/>
<path d="M39 20.5C39 23.5387 36.5387 26 33.5 26C30.4613 26 28 23.5387 28 20.5C28 17.4612 30.4613 15 33.5 15C36.5387 15 39 17.4612 39 20.5Z" fill="#333333"/>
<path d="M17 26C19.7336 26 24.183 26.8511 27.1011 28.5452C28.293 29.7585 29 31.0814 29 32.4V38H4V32.4C4 28.144 12.6612 26 17 26Z" fill="#333333"/>
<path d="M44 38H31V32.4C31 30.9837 30.4886 29.6801 29.6764 28.5166C31.2173 28.1725 32.7343 28 33.8927 28C37.6211 28 44 29.7867 44 33.3333V38Z" fill="#333333"/>
</svg>
